X:1
T:Johnnie Sangster
B:Ord, Bothy Songs and Ballads, 1930, p.265
S:Communicated by Gavin Greig
L:1/8
Q:1/4=100
M:4/4
K:D
A|F3/2 F/ F3/2 D/ E3/2 E/ E3/2 E/|F3/2 G/ A3/2 F/ B2 B3/2 A/|
w:O a' the sea-sons o' the year, when we maun work the sair-est; The
F3/2 F/ F3/2 D/ E3/2 E/ E3/2 E/|F3/2 G/ A3/2 F/ B2 B3/2 A/|B3/2 c/ d3/2 B/
w:hair-vest is the fore-most time and yet it is the rar-est. We rise as seen as
e3/2 d/ c3/2 A/|B3/2 c/ d3/2 B/ c2 B3/2 A/|B3/2 c/ d3/2 B/ c3/2 e/ e3/2 d/|
w:morn-in' licht. Nae cra-ters can by blyth-er. We buck-le on oor fin-ger-steels and
B3/2 A/ F3/2 A/ B2 B3/2|| A/ |F2 F/ D3/2 E2 E/ E3/2|F2 A/ F3/2
w:fol-lowed oot the scyth-er. For you, John-nie, you John-nie, you, John-nie
B2 B3/2 A/|F3/2 F/ F3/2 D/ E3/2 E/ E3/2 E/|F3/2 G/ A/ F3/2 B2 B|]
w:Sang-ster; I'll trim the ga-vel o' my sheaf for ye're the gal-lant band-ster.
